X: 1
T:Hall's Barn Dance
M:C|
L:1/8
C:Lorimer Higgins
S:The Maritime Fiddler
B:|2c2eg
K:F
AB|:c2AB cBc2|aga2f4|c2AB cBAc|B4G4|!
C2CD ECE2|efec d4|1c2=Bc dc=Bd|c4c2AB:|2c2ed bgeg|f4f2c2||!
d3c def2|c2cd cBAF|G2G2GFEG|FEFG ABc2|!
d2c def2|c2cd cBAF|GG2GFEG|FBAGF4||!
